X: 1
T: The Yellow Tinker
R: reel
M: 4/4
L: 1/8
K: Gmix
DG~G2 DFCF|DG~G2 dGBG|DG~G2 DF~F2|1 cAFA c2FE:|2 cAFA c2Bc||
K:G
dG~G2 dGBc|dg~g2 fdcA|dG~G2 dGBd|cA=FA c2Bc|
dG~G2 dGBc|dg~g2 ^fgag|f2de f2de|fgag fdcA||
K:Gmix
d2BG (3Bcd BG|(3Bcd BG c2Bc|d2BG (3ABc de|fdcA FGAc|
d2BG (3Bcd BG|(3Bcd BG c2Bc|~d3e ~f3d|cAFA G3F||


Tune 1554	Setting 22308

